packages/core/src/svgs/game.svg

<svg width="24" height="24" viewBox="0 0 24 24" fill="none" xmlns="http://www.w3.org/2000/svg">
<g clip-path="url(#clip0_31_10618)">
<path d="M0 0H24V24H0V0Z" fill="url(#paint0_linear_31_10618)"/>
<path fill-rule="evenodd" clip-rule="evenodd" d="M14.4224 17.957C13.6754 18.2613 12.8581 18.4284 12.0018 18.4284C9.32624 18.4284 7.03253 16.7943 6.06439 14.4693C6.10081 12.9324 7.43881 10.505 10.207 9.70186C9.83004 10.0031 9.52582 10.3854 9.31689 10.8203C9.10796 11.2552 8.99969 11.7316 9.0001 12.2141C9.0001 12.4284 9.0211 12.6376 9.06096 12.8399C9.13981 13.7621 9.48524 14.9369 10.3051 15.935C11.1382 16.949 12.448 17.7641 14.4224 17.957ZM15.211 17.5713C12.9078 17.5409 11.4875 16.6987 10.6364 15.6629C10.3348 15.2941 10.0871 14.8843 9.90096 14.4457C10.2813 14.8398 10.7561 15.1303 11.2802 15.2894C11.8043 15.4486 12.3603 15.4713 12.8956 15.3553C13.431 15.2393 13.9278 14.9885 14.339 14.6267C14.7502 14.2648 15.0621 13.8039 15.2452 13.2877C15.7047 13.292 16.3407 13.364 16.8532 13.6113C17.1151 13.7377 17.3358 13.9057 17.4875 14.1256C17.6315 14.333 17.722 14.5987 17.7168 14.9459C17.1497 16.0423 16.2802 16.9533 15.2114 17.5709L15.211 17.5713ZM18.0288 14.2413C18.2953 13.5241 18.4313 12.765 18.4304 11.9999C18.4304 11.2289 17.665 10.7129 16.894 10.7129H14.7854L14.7858 10.7141H12.5392C12.0065 10.7141 11.6547 10.9541 11.6547 11.4873C11.6547 12.3744 12.2945 12.857 13.1821 12.857H15.364L15.3631 12.8613C15.8435 12.8763 16.4902 12.9603 17.0388 13.2251C17.3478 13.3743 17.6345 13.5851 17.8402 13.8813C17.9157 13.991 17.98 14.111 18.0288 14.2413ZM11.9448 9.00843C11.9916 9.00456 12.0385 9.0017 12.0854 8.99986H15.0018C15.9111 8.99986 16.7832 8.63864 17.4262 7.99566C18.0692 7.35267 18.4304 6.4806 18.4304 5.57129H12.0018C8.4511 5.57129 5.57324 8.44957 5.57324 11.9999C5.57324 12.542 5.6401 13.0687 5.76653 13.5719C6.28167 11.5803 8.31481 9.10529 11.9448 9.00843ZM13.2858 11.357C13.2858 11.3002 13.3084 11.2457 13.3486 11.2055C13.3888 11.1653 13.4433 11.1427 13.5001 11.1427C13.5569 11.1427 13.6114 11.1653 13.6516 11.2055C13.6918 11.2457 13.7144 11.3002 13.7144 11.357V11.5713H13.9287C13.9855 11.5713 14.04 11.5939 14.0802 11.6341C14.1204 11.6742 14.143 11.7287 14.143 11.7856C14.143 11.8424 14.1204 11.8969 14.0802 11.9371C14.04 11.9773 13.9855 11.9999 13.9287 11.9999H13.7144V12.2141C13.7144 12.271 13.6918 12.3255 13.6516 12.3657C13.6114 12.4059 13.5569 12.4284 13.5001 12.4284C13.4433 12.4284 13.3888 12.4059 13.3486 12.3657C13.3084 12.3255 13.2858 12.271 13.2858 12.2141V11.9999H13.0715C13.0147 11.9999 12.9602 11.9773 12.92 11.9371C12.8798 11.8969 12.8572 11.8424 12.8572 11.7856C12.8572 11.7287 12.8798 11.6742 12.92 11.6341C12.9602 11.5939 13.0147 11.5713 13.0715 11.5713H13.2858V11.357ZM16.7144 11.357C16.7144 11.4138 16.6918 11.4683 16.6516 11.5085C16.6114 11.5487 16.5569 11.5713 16.5001 11.5713C16.4433 11.5713 16.3888 11.5487 16.3486 11.5085C16.3084 11.4683 16.2858 11.4138 16.2858 11.357C16.2858 11.3002 16.3084 11.2457 16.3486 11.2055C16.3888 11.1653 16.4433 11.1427 16.5001 11.1427C16.5569 11.1427 16.6114 11.1653 16.6516 11.2055C16.6918 11.2457 16.7144 11.3002 16.7144 11.357ZM16.2858 11.7856C16.2858 11.8424 16.2632 11.8969 16.2231 11.9371C16.1829 11.9773 16.1284 11.9999 16.0715 11.9999C16.0147 11.9999 15.9602 11.9773 15.92 11.9371C15.8798 11.8969 15.8572 11.8424 15.8572 11.7856C15.8572 11.7287 15.8798 11.6742 15.92 11.6341C15.9602 11.5939 16.0147 11.5713 16.0715 11.5713C16.1284 11.5713 16.1829 11.5939 16.2231 11.6341C16.2632 11.6742 16.2858 11.7287 16.2858 11.7856ZM16.9287 11.9999C16.9855 11.9999 17.04 11.9773 17.0802 11.9371C17.1204 11.8969 17.143 11.8424 17.143 11.7856C17.143 11.7287 17.1204 11.6742 17.0802 11.6341C17.04 11.5939 16.9855 11.5713 16.9287 11.5713C16.8718 11.5713 16.8173 11.5939 16.7771 11.6341C16.737 11.6742 16.7144 11.7287 16.7144 11.7856C16.7144 11.8424 16.737 11.8969 16.7771 11.9371C16.8173 11.9773 16.8718 11.9999 16.9287 11.9999ZM16.7144 12.2141C16.7144 12.271 16.6918 12.3255 16.6516 12.3657C16.6114 12.4059 16.5569 12.4284 16.5001 12.4284C16.4433 12.4284 16.3888 12.4059 16.3486 12.3657C16.3084 12.3255 16.2858 12.271 16.2858 12.2141C16.2858 12.1573 16.3084 12.1028 16.3486 12.0626C16.3888 12.0224 16.4433 11.9999 16.5001 11.9999C16.5569 11.9999 16.6114 12.0224 16.6516 12.0626C16.6918 12.1028 16.7144 12.1573 16.7144 12.2141Z" fill="white"/>
</g>
<defs>
<linearGradient id="paint0_linear_31_10618" x1="12" y1="0" x2="12" y2="24" gradientUnits="userSpaceOnUse">
<stop stop-color="#0B9946"/>
<stop offset="1" stop-color="#82C742"/>
</linearGradient>
<clipPath id="clip0_31_10618">
<rect width="24" height="24" fill="white"/>
</clipPath>
</defs>
</svg>

<svg xmlns="http://www.w3.org/2000/svg" width="24" height="24" fill="none" viewBox="0 0 24 24"><g clip-path="url(#a)"><path fill="url(#b)" d="M0 0h24v24H0z"/><path fill="#fff" fill-rule="evenodd" d="M14.422 17.957a6.43 6.43 0 0 1-8.358-3.488c.037-1.537 1.375-3.964 4.143-4.767a3.21 3.21 0 0 0-1.146 3.138c.079.922.424 2.097 1.244 3.095.833 1.014 2.143 1.83 4.117 2.022m.789-.386c-2.303-.03-3.723-.872-4.575-1.908a5 5 0 0 1-.735-1.217 3.215 3.215 0 0 0 5.344-1.158c.46.004 1.096.076 1.608.323.262.127.483.295.634.515.145.207.235.473.23.82a6.46 6.46 0 0 1-2.506 2.625m2.818-3.33A6.4 6.4 0 0 0 18.43 12c0-.771-.765-1.287-1.536-1.287h-2.109v.001H12.54c-.532 0-.884.24-.884.773 0 .887.64 1.37 1.527 1.37h2.182v.004c.48.015 1.126.1 1.675.364.309.15.595.36.801.656q.115.165.189.36m-6.084-5.233.14-.008h2.917A3.43 3.43 0 0 0 18.43 5.57h-6.428a6.428 6.428 0 0 0-6.235 8c.515-1.99 2.548-4.466 6.178-4.563m1.34 2.349a.214.214 0 0 1 .43 0v.214h.214a.214.214 0 0 1 0 .429h-.215v.214a.214.214 0 1 1-.428 0V12h-.214a.214.214 0 0 1 0-.429h.214zm3.43 0a.214.214 0 1 1-.43 0 .214.214 0 0 1 .43 0m-.43.429a.215.215 0 1 1-.428 0 .215.215 0 0 1 .429 0m.644.214a.214.214 0 1 0 0-.429.214.214 0 0 0 0 .429m-.215.214a.214.214 0 1 1-.428 0 .214.214 0 0 1 .428 0" clip-rule="evenodd"/></g><defs><linearGradient id="b" x1="12" x2="12" y1="0" y2="24" gradientUnits="userSpaceOnUse"><stop stop-color="#0B9946"/><stop offset="1" stop-color="#82C742"/></linearGradient><clipPath id="a"><path fill="#fff" d="M0 0h24v24H0z"/></clipPath></defs></svg>
